X: 20469
T: John Keith Lang
R: reel
M: 4/4
K: Amajor
|:A2ce fcef|cefc e2ce|f2fe faaf|e2ef cBBc|
A2 ce fcef|cefc e2ce|f3e faaf|e2ec BAA2:|
Aaaf e2fe|cBBc e2ce|f3e faaf|e2ef cBB2|
[1 Aaaf e2ef|cBBc e2ce|f3e faaf|e2ec BAA2:|
[2 A2ce fcef|cefc e2ce|f2fe faaf|e2ec BAA2||

